source/images/icons/instagram.svg

<svg width="40" height="40" viewBox="0 0 40 40" fill="none" xmlns="http://www.w3.org/2000/svg"><circle cx="20" cy="20" r="20" fill="#fff" fill-opacity=".3"/><path d="M20 22a2 2 0 100-4 2 2 0 000 4z" fill="#444"/><path d="M26.7 13.3c-.9-.9-2-1.3-3.4-1.3h-6.6c-2.8 0-4.7 1.9-4.7 4.7v6.6c0 1.4.4 2.6 1.4 3.4.9.9 2 1.3 3.3 1.3h6.6c1.4 0 2.6-.4 3.4-1.3.8-.9 1.3-2 1.3-3.4v-6.6c0-1.4-.4-2.6-1.3-3.4zM20 24.1c-2.2 0-4.1-1.8-4.1-4.1s1.9-4.1 4.1-4.1c2.2 0 4.1 1.8 4.1 4.1s-1.9 4.1-4.1 4.1zm4.6-7.4c-.7 0-1.3-.5-1.3-1.3s.5-1.3 1.3-1.3c.7 0 1.3.6 1.3 1.3 0 .7-.6 1.3-1.3 1.3z" fill="#444"/></svg>

<svg width="40" height="40" viewBox="0 0 40 40" fill="none" xmlns="http://www.w3.org/2000/svg">
<circle cx="20" cy="20" r="20" fill="white" fill-opacity="0.3"/>
<path d="M20 22C21.1046 22 22 21.1046 22 20C22 18.8954 21.1046 18 20 18C18.8954 18 18 18.8954 18 20C18 21.1046 18.8954 22 20 22Z" fill="#444444"/>
<path d="M26.7 13.3C25.8 12.4 24.7 12 23.3 12H16.7C13.9 12 12 13.9 12 16.7V23.3C12 24.7 12.4 25.9 13.4 26.7C14.3 27.6 15.4 28 16.7 28H23.3C24.7 28 25.9 27.6 26.7 26.7C27.5 25.8 28 24.7 28 23.3V16.7C28 15.3 27.6 14.1 26.7 13.3ZM20 24.1C17.8 24.1 15.9 22.3 15.9 20C15.9 17.7 17.8 15.9 20 15.9C22.2 15.9 24.1 17.7 24.1 20C24.1 22.3 22.2 24.1 20 24.1ZM24.6 16.7C23.9 16.7 23.3 16.2 23.3 15.4C23.3 14.6 23.8 14.1 24.6 14.1C25.3 14.1 25.9 14.7 25.9 15.4C25.9 16.1 25.3 16.7 24.6 16.7Z" fill="#444444"/>
</svg>
